X: 1
T: O'Leary's Motorbike
M: 6/8
L: 1/8
R: jig
K: Dmix
|:FGA dAF| BAG FED| FGA dAF| BGF E3|
FGA dAF| BAG FED| EFG cGE| DED D3:|
ABA dAD| FAd fed | cBc EFG| cGE EFG|
ABA dAD| FAd fed | cBc EFG| AFD D3|
ABA dAD| FAd fed |cBc EFG|cGE EFG|
ABA dAD| FAd fed | cBc EFG| AFD D2g|
fed cde| dBd cAG| FAG BGc|AdB cdg|
fed cde| dBd cAG| EFG cGE|DED D2g|
fed cde| dBd cAG| FAG BGc|AdB cAG|
FAG BGc| AdB cAG | EFG cGE|DED D3|
